X: 1
T: Red Prairie Dawn
C: Garry Harrison
R: reel
Z: 2016 John Chambers <jc:trillian.mit.edu>
S: Portland Collection v.3 p.171
M: C|
L: 1/8
K: A
|:\
"A"e2ce BA-AB | "D"c4 F3F |\
[1,3 "A"A2FA EAAB | "F#m"cefc ec3 :|\
[2,4 "A"A2FA EAAc | "E7"BABA "A"A4 :|
|:\
"F#m"c4 F3E | "A"A4 C3B, |\
[1,3 "A"A,2AE FAAB | "E7"ce-ec B2AB :|\
[2,4 "A"A,2AE FAAc | "E7"BAB2 "A"A4 :|
